!!!OTL-incipit: AUS ENGLAND KAM EIN BETTLER HERAUS
!!!ARE: Europa, Mitteleuropa, Deutschland, Nord - Deutschland
!!!SCT: Z0168
!!!TXL: @@DE
!!!YEM: Copyright 1995, estate of Helmut Schaffrath.
**kern	**text
*ICvox	*
*M4/4	*
*met(c)	*
*k[b-]	*
*F:	*
!LO:TX:a:t=Norddeutſch.	!
{8fL	Aus
8aJ	.
=1	=1
4cc	Eng-
8a	-land
8a	kam
(8aL	ein
8b-J)	.
(8ccL	.
8ddJ)	.
=2	=2
(8ccL	Bett-
8b-J)	.
8g	-ler
8g	her-
4g}	-aus,
{(8aL	er
8b-J)	.
=3	=3
8ddL	ging
8ccJ	.
8b-L	wohl
8aJ	.
8ccL	vor
8b-J	.
8aL	des
8gJ	.
=4	=4
4dd	Rei-
4cc	-chen
4a}	Haus,
{8fL	und
8aJ	.
=5	=5
4cc	als
8a	ihm
8a	die
8g	Tochter
8b-/	.
8cc	.
8dd	die
=6	=6
8ccL	Al-
8b-J	.
8g	-mo-
8g	-ſen
4g}	gab,
{8aL	ſie
8b-J	.
=7	=7
8b-/	dacht
8a	in
8a	ih-
8a	-rem
8aL	Sinn,
8b-J	.
8ccL	ſie
8ddJ	.
=8	=8
8cc	dacht
8b-	in
8g	ih-
8g	-rem
4g}	Muth,
{8aL	der
8b-J	.
=9	=9
(8ddL	ar-
8ccJ)	.
(8b-L	-me
8aJ)	.
(8ccL	Bett-
8b-J)	.
8aL	-ler
8gJ	.
=10	=10
4f	wär
4cc	wohl
4a}	gut.
==	==
!!!AGN: Erzaehlung, lustige Romanze
!!!ONB: ESAC (Essen Associative Code) Database: ZUCCAL
!!!AMT: simple quadruple
!!!AIN: vox
!!!EED: Helmut Schaffrath
!!!EEV: 1.0
!!!GTL: II. Erzahlungen, lustige Romanzen, Kinder-Lieder und episch-lyrische Volks-Lieder.
!!!URL-scan: https://www.digitale-sammlungen.de/de/view/bsb11160571?page=316
!!!ENC: Anna Maria Matuszewska
!!!EEV: 2025/01/28
*-	*-
